<?xml version="1.0" encoding="UTF-8"?>
<map version="1.10" tiledversion="1.12.2" orientation="orthogonal" renderorder="right-down" width="80" height="45" tilewidth="16" tileheight="16" infinite="0" nextlayerid="4" nextobjectid="1">
 <tileset firstgid="1" name="pancarte_32x32_acajou_pied_texture" tilewidth="32" tileheight="32" tilecount="1" columns="1">
  <image source="pancarte_32x32_acajou_pied_texture.png" width="32" height="32"/>
 </tileset>
 <tileset firstgid="2" name="Brick_07-128x128" tilewidth="16" tileheight="16" tilecount="1" columns="1">
  <image source="Texture sol/128x128/converted_16px/Brick/Brick_07-128x128.png" width="16" height="16"/>
 </tileset>
 <tileset firstgid="3" name="Brick_11-128x128" tilewidth="16" tileheight="16" tilecount="1" columns="1">
  <image source="Texture sol/128x128/converted_16px/Brick/Brick_11-128x128.png" width="16" height="16"/>
 </tileset>
 <tileset firstgid="4" name="Brick_19-128x128" tilewidth="16" tileheight="16" tilecount="1" columns="1">
  <image source="Texture sol/128x128/converted_16px/Brick/Brick_19-128x128.png" width="16" height="16"/>
 </tileset>
 <tileset firstgid="5" name="Dirt_19-128x128" tilewidth="16" tileheight="16" tilecount="1" columns="1">
  <image source="Texture sol/128x128/converted_16px/Dirt/Dirt_19-128x128.png" width="16" height="16"/>
 </tileset>
 <layer id="3" name="Calque de Tuiles 3" width="80" height="45">
  <data encoding="csv">
5,5,5,5,5,5,5,5,5,5,5,5,5,5,5,5,5,5,5,5,5,5,5,5,5,5,5,5,5,5,5,5,5,5,5,5,5,5,5,5,5,5,5,5,5,5,5,5,5,5,5,5,5,5,5,5,5,5,5,5,5,5,5,5,5,5,5,5,5,5,5,5,5,5,5,5,5,5,5,5,
5,5,5,5,5,5,5,5,5,5,5,5,5,5,5,5,5,5,5,5,5,5,5,5,5,5,5,5,5,5,5,5,5,5,5,5,5,5,5,5,5,5,5,5,5,5,5,5,5,5,5,5,5,5,5,5,5,5,5,5,5,5,5,5,5,5,5,5,5,5,5,5,5,5,5,5,5,5,5,5,
5,5,5,5,5,5,5,5,5,5,5,5,5,5,5,5,5,5,5,5,5,5,5,5,5,5,5,5,5,5,5,5,5,5,5,5,5,5,5,5,5,5,5,5,5,5,5,5,5,5,5,5,5,5,5,5,5,5,5,5,5,5,5,5,5,5,5,5,5,5,5,5,5,5,5,5,5,5,5,5,
5,5,5,5,5,5,5,5,5,5,5,5,5,5,5,5,5,5,5,5,5,5,5,5,5,5,5,5,5,5,5,5,5,5,5,5,5,5,5,5,5,5,5,5,5,5,5,5,5,5,5,5,5,5,5,5,5,5,5,5,5,5,5,5,5,5,5,5,5,5,5,5,5,5,5,5,5,5,5,5,
5,5,5,5,5,5,5,5,5,5,5,5,5,5,5,5,5,5,5,5,5,5,5,5,5,5,5,5,5,5,5,5,5,5,5,5,5,5,5,5,5,5,5,5,5,5,5,5,5,5,5,5,5,5,5,5,5,5,5,5,5,5,5,5,5,5,5,5,5,5,5,5,5,5,5,5,5,5,5,5,
5,5,5,5,5,5,5,5,5,5,5,5,5,5,5,5,5,5,5,5,5,5,5,5,5,5,5,5,5,5,5,5,5,5,5,5,5,5,5,5,5,5,5,5,5,5,5,5,5,5,5,5,5,5,5,5,5,5,5,5,5,5,5,5,5,5,5,5,5,5,5,5,5,5,5,5,5,5,5,5,
5,5,5,5,5,5,5,5,5,5,5,5,5,5,5,5,5,5,5,5,5,5,5,5,5,5,5,5,5,5,5,5,5,5,5,5,5,5,5,5,5,5,5,5,5,5,5,5,5,5,5,5,5,5,5,5,5,5,5,5,5,5,5,5,5,5,5,5,5,5,5,5,5,5,5,5,5,5,5,5,
5,5,5,5,5,5,5,5,5,5,5,5,5,5,5,5,5,5,5,5,5,5,5,5,5,5,5,5,5,5,5,5,5,5,5,5,5,5,5,5,5,5,5,5,5,5,5,5,5,5,5,5,5,5,5,5,5,5,5,5,5,5,5,5,5,5,5,5,5,5,5,5,5,5,5,5,5,5,5,5,
5,5,5,5,5,5,5,5,5,5,5,5,5,5,5,5,5,5,5,5,5,5,5,5,5,5,5,5,5,5,5,5,5,5,5,5,5,5,5,5,5,5,5,5,5,5,5,5,5,5,5,5,5,5,5,5,5,5,5,5,5,5,5,5,5,5,5,5,5,5,5,5,5,5,5,5,5,5,5,5,
5,5,5,5,5,5,5,5,5,5,5,5,5,5,5,5,5,5,5,5,5,5,5,5,5,5,5,5,5,5,5,5,5,5,5,5,5,5,5,5,5,5,5,5,5,5,5,5,5,5,5,5,5,5,5,5,5,5,5,5,5,5,5,5,5,5,5,5,5,5,5,5,5,5,5,5,5,5,5,5,
5,5,5,5,5,5,5,5,5,5,5,5,5,5,5,5,5,5,5,5,5,5,5,5,5,5,5,5,5,5,5,5,5,5,5,5,5,5,5,5,5,5,5,5,5,5,5,5,5,5,5,5,5,5,5,5,5,5,5,5,5,5,5,5,5,5,5,5,5,5,5,5,5,5,5,5,5,5,5,5,
5,5,5,5,5,5,5,5,5,5,5,5,5,5,5,5,5,5,5,5,5,5,5,5,5,5,5,5,5,5,5,5,5,5,5,5,5,5,5,5,5,5,5,5,5,5,5,5,5,5,5,5,5,5,5,5,5,5,5,5,5,5,5,5,5,5,5,5,5,5,5,5,5,5,5,5,5,5,5,5,
5,5,5,5,5,5,5,5,5,5,5,5,5,5,5,5,5,5,5,5,5,5,5,5,5,5,5,5,5,5,5,5,5,5,5,5,5,5,5,5,5,5,5,5,5,5,5,5,5,5,5,5,5,5,5,5,5,5,5,5,5,5,5,5,5,5,5,5,5,5,5,5,5,5,5,5,5,5,5,5,
5,5,5,5,5,5,5,5,5,5,5,5,5,5,5,5,5,5,5,5,5,5,5,5,5,5,5,5,5,5,5,5,5,5,5,5,5,5,5,5,5,5,5,5,5,5,5,5,5,5,5,5,5,5,5,5,5,5,5,5,5,5,5,5,5,5,5,5,5,5,5,5,5,5,5,5,5,5,5,5,
5,5,5,5,5,5,5,5,5,5,5,5,5,5,5,5,5,5,5,5,5,5,5,5,5,5,5,5,5,5,5,5,5,5,5,5,5,5,5,5,5,5,5,5,5,5,5,5,5,5,5,5,5,5,5,5,5,5,5,5,5,5,5,5,5,5,5,5,5,5,5,5,5,5,5,5,5,5,5,5,
5,5,5,5,5,5,5,5,5,5,5,5,5,5,5,5,5,5,5,5,5,5,5,5,5,5,5,5,5,5,5,5,5,5,5,5,5,5,5,5,5,5,5,5,5,5,5,5,5,5,5,5,5,5,5,5,5,5,5,5,5,5,5,5,5,5,5,5,5,5,5,5,5,5,5,5,5,5,5,5,
5,5,5,5,5,5,5,5,5,5,5,5,5,5,5,5,5,5,5,5,5,5,5,5,5,5,5,5,5,5,5,5,5,5,5,5,5,5,5,5,5,5,5,5,5,5,5,5,5,5,5,5,5,5,5,5,5,5,5,5,5,5,5,5,5,5,5,5,5,5,5,5,5,5,5,5,5,5,5,5,
5,5,5,5,5,5,5,5,5,5,5,5,5,5,5,5,5,5,5,5,5,5,5,5,5,5,5,5,5,5,5,5,5,5,5,5,5,5,5,5,5,5,5,5,5,5,5,5,5,5,5,5,5,5,5,5,5,5,5,5,5,5,5,5,5,5,5,5,5,5,5,5,5,5,5,5,5,5,5,5,
5,5,5,5,5,5,5,5,5,5,5,5,5,5,5,5,5,5,5,5,5,5,5,5,5,5,5,5,5,5,5,5,5,5,5,5,5,5,5,5,5,5,5,5,5,5,5,5,5,5,5,5,5,5,5,5,5,5,5,5,5,5,5,5,5,5,5,5,5,5,5,5,5,5,5,5,5,5,5,5,
5,5,5,5,5,5,5,5,5,5,5,5,5,5,5,5,5,5,5,5,5,5,5,5,5,5,5,5,5,5,5,5,5,5,5,5,5,5,5,5,5,5,5,5,5,5,5,5,5,5,5,5,5,5,5,5,5,5,5,5,5,5,5,5,5,5,5,5,5,5,5,5,5,5,5,5,5,5,5,5,
5,5,5,5,5,5,5,5,5,5,5,5,5,5,5,5,5,5,5,5,5,5,5,5,5,5,5,5,5,5,5,5,5,5,5,5,5,5,5,5,5,5,5,5,5,5,5,5,5,5,5,5,5,5,5,5,5,5,5,5,5,5,5,5,5,5,5,5,5,5,5,5,5,5,5,5,5,5,5,5,
5,5,5,5,5,5,5,5,5,5,5,5,5,5,5,5,5,5,5,5,5,5,5,5,5,5,5,5,5,5,5,5,5,5,5,5,5,5,5,5,5,5,5,5,5,5,5,5,5,5,5,5,5,5,5,5,5,5,5,5,5,5,5,5,5,5,5,5,5,5,5,5,5,5,5,5,5,5,5,5,
5,5,5,5,5,5,5,5,5,5,5,5,5,5,5,5,5,5,5,5,5,5,5,5,5,5,5,5,5,5,5,5,5,5,5,5,5,5,5,5,5,5,5,5,5,5,5,5,5,5,5,5,5,5,5,5,5,5,5,5,5,5,5,5,5,5,5,5,5,5,5,5,5,5,5,5,5,5,5,5,
5,5,5,5,5,5,5,5,5,5,5,5,5,5,5,5,5,5,5,5,5,5,5,5,5,5,5,5,5,5,5,5,5,5,5,5,5,5,5,5,5,5,5,5,5,5,5,5,5,5,5,5,5,5,5,5,5,5,5,5,5,5,5,5,5,5,5,5,5,5,5,5,5,5,5,5,5,5,5,5,
5,5,5,5,5,5,5,5,5,5,5,5,5,5,5,5,5,5,5,5,5,5,5,5,5,5,5,5,5,5,5,5,5,5,5,5,5,5,5,5,5,5,5,5,5,5,5,5,5,5,5,5,5,5,5,5,5,5,5,5,5,5,5,5,5,5,5,5,5,5,5,5,5,5,5,5,5,5,5,5,
5,5,5,5,5,5,5,5,5,5,5,5,5,5,5,5,5,5,5,5,5,5,5,5,5,5,5,5,5,5,5,5,5,5,5,5,5,5,5,5,5,5,5,5,5,5,5,5,5,5,5,5,5,5,5,5,5,5,5,5,5,5,5,5,5,5,5,5,5,5,5,5,5,5,5,5,5,5,5,5,
5,5,5,5,5,5,5,5,5,5,5,5,5,5,5,5,5,5,5,5,5,5,5,5,5,5,5,5,5,5,5,5,5,5,5,5,5,5,5,5,5,5,5,5,5,5,5,5,5,5,5,5,5,5,5,5,5,5,5,5,5,5,5,5,5,5,5,5,5,5,5,5,5,5,5,5,5,5,5,5,
5,5,5,5,5,5,5,5,5,5,5,5,5,5,5,5,5,5,5,5,5,5,5,5,5,5,5,5,5,5,5,5,5,5,5,5,5,5,5,5,5,5,5,5,5,5,5,5,5,5,5,5,5,5,5,5,5,5,5,5,5,5,5,5,5,5,5,5,5,5,5,5,5,5,5,5,5,5,5,5,
5,5,5,5,5,5,5,5,5,5,5,5,5,5,5,5,5,5,5,5,5,5,5,5,5,5,5,5,5,5,5,5,5,5,5,5,5,5,5,5,5,5,5,5,5,5,5,5,5,5,5,5,5,5,5,5,5,5,5,5,5,5,5,5,5,5,5,5,5,5,5,5,5,5,5,5,5,5,5,5,
5,5,5,5,5,5,5,5,5,5,5,5,5,5,5,5,5,5,5,5,5,5,5,5,5,5,5,5,5,5,5,5,5,5,5,5,5,5,5,5,5,5,5,5,5,5,5,5,5,5,5,5,5,5,5,5,5,5,5,5,5,5,5,5,5,5,5,5,5,5,5,5,5,5,5,5,5,5,5,5,
5,5,5,5,5,5,5,5,5,5,5,5,5,5,5,5,5,5,5,5,5,5,5,5,5,5,5,5,5,5,5,5,5,5,5,5,5,5,5,5,5,5,5,5,5,5,5,5,5,5,5,5,5,5,5,5,5,5,5,5,5,5,5,5,5,5,5,5,5,5,5,5,5,5,5,5,5,5,5,5,
5,5,5,5,5,5,5,5,5,5,5,5,5,5,5,5,5,5,5,5,5,5,5,5,5,5,5,5,5,5,5,5,5,5,5,5,5,5,5,5,5,5,5,5,5,5,5,5,5,5,5,5,5,5,5,5,5,5,5,5,5,5,5,5,5,5,5,5,5,5,5,5,5,5,5,5,5,5,5,5,
5,5,5,5,5,5,5,5,5,5,5,5,5,5,5,5,5,5,5,5,5,5,5,5,5,5,5,5,5,5,5,5,5,5,5,5,5,5,5,5,5,5,5,5,5,5,5,5,5,5,5,5,5,5,5,5,5,5,5,5,5,5,5,5,5,5,5,5,5,5,5,5,5,5,5,5,5,5,5,5,
5,5,5,5,5,5,5,5,5,5,5,5,5,5,5,5,5,5,5,5,5,5,5,5,5,5,5,5,5,5,5,5,5,5,5,5,5,5,5,5,5,5,5,5,5,5,5,5,5,5,5,5,5,5,5,5,5,5,5,5,5,5,5,5,5,5,5,5,5,5,5,5,5,5,5,5,5,5,5,5,
5,5,5,5,5,5,5,5,5,5,5,5,5,5,5,5,5,5,5,5,5,5,5,5,5,5,5,5,5,5,5,5,5,5,5,5,5,5,5,5,5,5,5,5,5,5,5,5,5,5,5,5,5,5,5,5,5,5,5,5,5,5,5,5,5,5,5,5,5,5,5,5,5,5,5,5,5,5,5,5,
5,5,5,5,5,5,5,5,5,5,5,5,5,5,5,5,5,5,5,5,5,5,5,5,5,5,5,5,5,5,5,5,5,5,5,5,5,5,5,5,5,5,5,5,5,5,5,5,5,5,5,5,5,5,5,5,5,5,5,5,5,5,5,5,5,5,5,5,5,5,5,5,5,5,5,5,5,5,5,5,
5,5,5,5,5,5,5,5,5,5,5,5,5,5,5,5,5,5,5,5,5,5,5,5,5,5,5,5,5,5,5,5,5,5,5,5,5,5,5,5,5,5,5,5,5,5,5,5,5,5,5,5,5,5,5,5,5,5,5,5,5,5,5,5,5,5,5,5,5,5,5,5,5,5,5,5,5,5,5,5,
5,5,5,5,5,5,5,5,5,5,5,5,5,5,5,5,5,5,5,5,5,5,5,5,5,5,5,5,5,5,5,5,5,5,5,5,5,5,5,5,5,5,5,5,5,5,5,5,5,5,5,5,5,5,5,5,5,5,5,5,5,5,5,5,5,5,5,5,5,5,5,5,5,5,5,5,5,5,5,5,
5,5,5,5,5,5,5,5,5,5,5,5,5,5,5,5,5,5,5,5,5,5,5,5,5,5,5,5,5,5,5,5,5,5,5,5,5,5,5,5,5,5,5,5,5,5,5,5,5,5,5,5,5,5,5,5,5,5,5,5,5,5,5,5,5,5,5,5,5,5,5,5,5,5,5,5,5,5,5,5,
5,5,5,5,5,5,5,5,5,5,5,5,5,5,5,5,5,5,5,5,5,5,5,5,5,5,5,5,5,5,5,5,5,5,5,5,5,5,5,5,5,5,5,5,5,5,5,5,5,5,5,5,5,5,5,5,5,5,5,5,5,5,5,5,5,5,5,5,5,5,5,5,5,5,5,5,5,5,5,5,
5,5,5,5,5,5,5,5,5,5,5,5,5,5,5,5,5,5,5,5,5,5,5,5,5,5,5,5,5,5,5,5,5,5,5,5,5,5,5,5,5,5,5,5,5,5,5,5,5,5,5,5,5,5,5,5,5,5,5,5,5,5,5,5,5,5,5,5,5,5,5,5,5,5,5,5,5,5,5,5,
5,5,5,5,5,5,5,5,5,5,5,5,5,5,5,5,5,5,5,5,5,5,5,5,5,5,5,5,5,5,5,5,5,5,5,5,5,5,5,5,5,5,5,5,5,5,5,5,5,5,5,5,5,5,5,5,5,5,5,5,5,5,5,5,5,5,5,5,5,5,5,5,5,5,5,5,5,5,5,5,
5,5,5,5,5,5,5,5,5,5,5,5,5,5,5,5,5,5,5,5,5,5,5,5,5,5,5,5,5,5,5,5,5,5,5,5,5,5,5,5,5,5,5,5,5,5,5,5,5,5,5,5,5,5,5,5,5,5,5,5,5,5,5,5,5,5,5,5,5,5,5,5,5,5,5,5,5,5,5,5,
5,5,5,5,5,5,5,5,5,5,5,5,5,5,5,5,5,5,5,5,5,5,5,5,5,5,5,5,5,5,5,5,5,5,5,5,5,5,5,5,5,5,5,5,5,5,5,5,5,5,5,5,5,5,5,5,5,5,5,5,5,5,5,5,5,5,5,5,5,5,5,5,5,5,5,5,5,5,5,5,
5,5,5,5,5,5,5,5,5,5,5,5,5,5,5,5,5,5,5,5,5,5,5,5,5,5,5,5,5,5,5,5,5,5,5,5,5,5,5,5,5,5,5,5,5,5,5,5,5,5,5,5,5,5,5,5,5,5,5,5,5,5,5,5,5,5,5,5,5,5,5,5,5,5,5,5,5,5,5,5
</data>
 </layer>
 <layer id="2" name="Calque de Tuiles 2" width="80" height="45">
  <data encoding="csv">
4,4,4,3,3,3,3,3,3,3,3,3,3,2,2,4,4,4,4,4,4,4,4,4,4,4,4,4,4,3,3,3,3,3,3,4,4,4,3,3,3,3,3,3,4,4,4,4,4,4,3,3,3,3,3,3,3,3,4,4,4,4,4,4,4,4,4,4,4,4,2,3,3,3,3,3,3,4,4,4,
4,4,4,3,3,3,3,3,3,3,3,3,4,4,4,4,4,4,4,4,4,4,4,4,4,4,4,4,4,4,4,3,3,3,3,3,3,3,3,3,3,3,3,4,4,3,3,3,3,3,3,3,3,3,3,3,3,3,3,3,3,3,3,4,4,4,4,4,4,2,2,4,4,4,4,3,3,4,4,4,
4,4,4,3,3,3,3,3,3,3,3,4,4,4,4,4,4,4,4,4,4,4,4,4,4,4,3,3,3,2,2,2,2,2,3,3,3,3,3,3,3,3,3,3,3,3,3,3,3,3,3,3,0,2,2,2,3,3,3,3,3,3,3,4,4,4,4,4,4,4,4,4,4,2,2,4,3,3,3,4,
4,4,4,3,3,3,3,3,3,3,3,4,4,4,2,3,3,3,2,2,2,2,0,2,2,4,4,2,3,3,3,3,4,4,0,0,2,2,2,3,3,3,3,3,3,3,3,3,3,3,3,3,3,3,2,2,2,2,2,2,4,3,3,3,4,4,4,4,4,4,4,4,4,2,2,4,4,2,3,2,
4,4,4,3,3,3,3,0,4,4,4,4,4,3,3,3,3,2,4,3,4,4,2,2,0,2,2,0,2,4,4,4,3,4,4,2,2,2,2,2,2,2,2,3,3,3,3,3,3,3,3,3,2,3,3,3,3,3,2,2,2,2,2,3,3,4,4,4,4,4,4,2,2,2,2,2,2,2,3,4,
4,4,4,3,3,3,3,4,4,4,4,3,3,3,3,3,4,4,4,4,3,4,4,4,2,2,2,2,2,4,4,4,4,4,4,3,3,2,2,2,2,2,2,2,3,3,3,3,2,3,3,3,2,2,4,4,4,4,3,2,0,0,0,3,3,3,4,4,4,4,4,4,2,2,3,3,3,3,3,4,
4,4,3,3,3,3,4,4,4,4,4,4,3,2,3,4,4,4,4,4,3,3,3,3,3,3,3,3,3,2,2,4,4,4,4,4,3,3,3,0,2,2,0,2,3,3,0,3,3,3,3,3,3,2,2,4,4,4,4,3,3,2,3,3,3,3,2,4,4,3,4,4,4,4,3,3,2,4,4,4,
4,4,3,3,3,3,4,4,4,4,4,4,2,3,3,2,4,4,4,2,2,3,2,2,2,2,2,2,3,3,2,2,2,3,4,2,2,4,4,3,0,0,2,3,3,3,3,0,3,3,3,2,3,4,4,4,4,4,4,4,4,3,3,3,3,3,2,2,4,4,2,4,4,4,3,3,2,4,4,4,
4,2,3,3,3,3,4,4,4,4,4,2,2,3,3,2,2,2,2,0,3,3,4,4,4,4,2,0,0,0,2,2,3,3,3,2,2,4,4,4,4,4,2,3,0,2,3,2,2,2,3,3,3,4,4,4,4,4,4,4,4,3,3,3,3,3,2,2,2,2,4,2,4,4,4,3,2,3,3,4,
4,2,3,3,3,3,4,4,4,3,4,2,3,3,3,3,3,3,3,3,3,4,4,4,4,2,0,0,0,0,2,2,3,3,3,3,2,2,4,2,4,4,4,2,2,2,2,3,3,2,3,3,3,3,4,4,4,4,4,4,3,4,3,3,3,3,3,2,2,2,4,4,2,4,4,3,2,3,3,4,
4,3,3,4,4,4,4,4,2,2,3,3,3,3,3,4,3,3,3,3,4,4,4,4,4,2,2,2,2,2,3,3,3,3,3,3,2,0,4,4,4,4,4,2,2,2,2,2,3,2,2,3,0,3,4,4,4,4,3,3,4,4,3,3,3,3,3,2,2,2,4,4,2,2,4,3,3,3,4,4,
2,3,3,4,4,4,4,4,4,4,3,3,3,3,3,4,4,3,3,3,2,2,2,2,2,2,2,2,2,3,3,3,3,3,3,0,2,2,2,2,3,2,4,4,4,2,2,2,2,3,2,3,2,3,4,4,4,4,3,4,4,4,3,3,3,0,2,2,3,2,2,4,4,4,2,3,3,3,4,4,
2,3,3,4,4,4,4,4,4,4,3,3,3,3,3,4,4,4,2,3,3,2,3,3,3,2,2,2,2,3,3,3,3,3,3,2,2,2,3,3,2,2,0,3,2,4,4,4,4,4,3,3,0,2,3,2,3,4,4,4,2,2,3,3,3,2,4,4,2,2,3,4,4,4,4,3,4,4,4,4,
2,3,4,4,4,4,4,4,4,2,3,3,3,0,3,4,2,2,2,2,3,3,3,3,3,3,0,0,3,3,3,3,3,3,3,3,0,2,3,0,0,2,2,3,3,3,2,2,4,4,4,3,3,0,3,0,3,4,2,2,2,2,3,3,3,4,4,2,2,2,0,3,4,4,4,4,4,4,4,4,
2,3,4,4,4,4,4,4,4,2,3,3,2,2,3,3,2,4,4,4,4,3,3,3,3,3,3,3,3,3,3,3,3,3,3,3,2,3,2,2,2,2,2,2,3,4,3,3,3,3,3,3,2,3,3,3,0,4,4,4,2,4,3,3,3,3,3,2,3,2,2,0,4,4,4,4,4,2,4,4,
2,2,2,4,4,4,4,4,2,2,3,3,0,2,3,3,4,4,4,4,2,3,0,2,3,3,3,3,3,3,3,3,0,0,3,3,3,3,2,0,2,2,0,2,3,4,4,3,4,3,3,3,3,3,3,4,4,4,4,4,4,4,3,3,3,3,3,2,0,2,4,2,4,4,4,4,4,2,4,4,
0,2,4,4,4,4,4,4,4,2,3,2,2,0,3,3,4,4,4,3,4,3,0,2,3,3,3,3,3,3,3,0,0,0,2,3,3,2,2,2,2,2,0,3,3,4,4,3,4,4,4,4,4,4,4,4,4,4,4,4,2,2,3,3,3,3,2,2,2,4,4,4,4,4,4,4,2,2,2,2,
0,2,4,4,4,4,4,4,4,3,3,0,2,2,3,3,3,4,2,3,4,3,0,0,3,3,3,3,3,3,3,3,0,0,2,2,2,2,2,0,2,2,3,3,3,3,3,2,3,3,3,4,4,4,4,4,4,4,4,4,3,0,4,3,3,2,2,2,2,2,4,4,4,3,4,4,4,2,2,0,
0,2,4,3,3,4,4,4,2,3,3,0,2,2,3,3,3,2,4,3,4,3,0,0,2,3,3,3,3,3,3,0,3,3,3,3,3,3,3,3,3,3,3,2,3,4,4,2,2,4,3,4,4,4,3,4,4,4,4,4,3,4,4,2,2,2,2,3,3,3,3,3,4,3,4,4,4,2,3,3,
0,2,2,4,4,4,2,2,3,3,3,0,2,2,2,3,3,4,4,4,4,3,0,3,3,3,3,3,3,3,0,0,2,2,2,2,2,0,0,0,2,3,2,2,3,3,4,3,2,2,2,2,2,2,3,3,0,4,4,4,4,4,3,2,2,2,2,4,4,3,3,3,3,4,4,4,4,3,3,0,
0,3,2,2,2,2,0,3,3,3,3,2,0,2,3,3,3,4,4,4,4,3,3,3,3,3,3,3,3,0,0,0,2,2,2,2,2,0,0,2,3,0,0,2,3,3,3,3,2,2,2,4,3,2,3,3,2,4,4,3,0,0,2,2,2,2,4,4,4,4,3,3,3,3,4,4,3,2,3,2,
0,0,3,2,2,2,3,3,3,3,3,2,2,3,3,3,3,4,4,3,3,3,3,3,3,3,3,3,2,0,3,3,3,3,3,3,3,3,0,2,3,0,0,3,2,3,4,4,2,2,3,3,3,3,3,3,2,4,4,3,0,2,2,2,2,3,3,4,4,4,4,3,3,3,3,3,3,3,3,2,
0,0,3,2,3,3,3,3,3,3,3,3,2,2,3,3,3,3,3,3,3,3,3,3,3,3,3,3,0,3,3,3,3,3,3,3,3,3,3,3,0,0,2,3,3,4,4,4,2,2,3,3,3,3,3,3,4,4,2,2,3,2,4,3,4,3,4,3,3,4,4,4,3,3,3,3,3,3,3,2,
0,2,2,0,3,3,3,0,2,3,3,3,3,0,3,3,3,3,3,3,3,3,3,3,3,3,3,2,3,3,3,3,3,3,0,0,2,2,2,3,3,3,3,3,3,2,2,2,2,2,3,3,3,3,3,3,4,4,2,2,3,4,4,3,4,4,4,4,4,3,2,2,3,3,3,3,3,3,3,2,
0,2,4,3,3,2,0,0,0,3,3,2,3,3,3,3,3,3,3,3,3,2,2,2,3,3,2,2,2,3,3,3,3,3,3,3,3,2,2,3,3,3,0,0,3,3,2,2,2,3,3,3,3,3,3,3,2,2,0,2,3,3,4,3,4,4,4,4,4,3,2,2,3,3,3,3,3,3,0,2,
2,4,4,3,3,2,2,0,0,3,3,3,3,3,3,3,3,3,3,3,4,4,4,4,3,3,2,2,0,0,3,3,3,3,3,3,3,3,3,3,3,3,3,2,2,2,2,2,3,3,3,3,3,3,3,2,2,0,0,2,2,3,4,4,4,4,4,4,4,4,2,2,2,3,3,3,3,3,2,4,
4,4,3,3,3,3,4,2,0,3,3,0,3,3,3,3,2,3,3,2,2,4,4,2,3,2,0,2,0,0,2,3,3,2,2,3,3,3,3,2,2,3,3,3,2,0,0,3,3,3,3,3,3,3,3,2,2,2,0,2,0,4,4,4,4,4,4,4,4,4,2,2,2,2,3,3,3,2,2,4,
4,3,3,3,3,3,4,4,2,3,3,0,3,3,3,3,3,2,2,2,2,2,2,3,3,2,2,2,2,2,2,2,3,3,2,2,3,3,3,2,2,3,3,3,2,0,0,3,3,3,3,3,3,3,3,0,2,2,2,4,4,4,4,4,4,4,3,3,4,4,3,2,2,2,2,2,3,3,3,4,
4,3,3,3,3,3,4,4,4,3,3,3,3,0,3,3,0,2,4,4,4,2,2,3,3,2,2,2,2,2,2,2,2,3,3,2,2,3,3,4,4,3,3,3,3,2,3,3,3,3,3,3,3,2,3,2,4,4,4,4,4,4,4,3,3,3,3,3,4,3,3,2,2,2,2,2,3,2,4,3,
4,4,3,3,3,3,4,4,4,3,3,3,3,3,3,3,0,2,4,4,4,4,3,2,3,2,2,0,0,3,3,0,2,3,3,3,3,2,3,2,4,4,3,3,3,3,3,3,2,4,4,3,3,4,4,4,4,4,4,4,4,4,3,3,3,3,2,2,4,3,3,2,2,2,2,2,3,4,4,4,
4,4,4,4,3,3,3,3,3,3,3,3,2,2,3,3,3,4,4,4,4,3,3,2,0,0,2,2,2,2,0,0,2,2,3,3,3,0,3,0,2,2,4,3,3,3,3,3,4,4,4,4,4,4,4,4,4,4,2,2,3,3,3,3,3,2,2,0,3,3,3,3,3,3,2,2,3,4,4,4,
4,4,4,4,3,3,3,3,3,3,3,3,0,0,3,3,4,4,4,4,3,3,3,0,0,0,2,2,0,2,2,2,0,3,3,3,4,3,3,3,4,4,2,2,3,3,3,4,4,4,4,4,4,4,3,3,2,2,3,3,3,3,3,2,2,0,0,3,3,3,3,3,3,3,3,2,3,4,4,4,
4,4,4,4,3,3,3,3,3,2,0,3,3,3,3,4,4,4,4,4,3,0,0,3,3,3,3,3,0,0,0,0,3,3,2,2,4,4,4,3,3,4,4,4,3,3,3,2,4,4,4,4,3,3,3,3,2,3,3,3,3,3,3,2,0,0,3,3,3,3,3,3,3,0,2,2,2,4,4,4,
4,4,2,3,3,3,3,3,2,2,3,2,2,0,0,4,4,4,4,3,3,3,3,3,3,3,3,3,3,3,3,3,3,2,2,2,2,2,2,3,3,3,4,3,4,4,4,4,4,4,4,4,4,3,3,3,3,3,3,3,3,3,2,2,3,3,3,3,3,3,3,3,0,0,2,2,2,2,2,2,
2,2,2,3,3,3,3,3,2,2,3,4,2,4,4,4,4,4,4,3,0,2,0,0,0,0,0,3,3,3,3,3,3,3,3,3,3,3,3,3,3,3,3,3,3,3,2,2,4,4,4,4,4,3,3,3,3,3,3,3,3,3,3,3,4,3,3,3,3,3,3,2,2,2,2,2,3,4,4,2,
2,0,3,3,3,3,3,0,2,2,3,4,4,4,4,4,4,4,3,3,3,2,0,0,3,3,3,3,3,3,2,2,0,0,0,2,2,3,3,3,3,3,3,0,0,3,3,3,3,4,4,4,4,4,3,3,3,3,3,2,2,3,4,4,4,3,3,3,3,3,3,0,0,2,2,2,4,3,4,4,
0,0,3,3,3,3,3,0,2,2,3,4,4,4,4,4,4,2,0,3,3,3,3,3,3,3,3,3,3,0,2,0,0,0,0,0,2,3,3,3,3,3,3,3,3,3,3,3,3,0,4,4,4,4,4,4,3,3,3,2,2,3,4,4,4,3,3,3,3,3,3,0,2,2,2,4,4,4,3,4,
2,3,3,3,3,3,3,0,0,2,3,4,4,4,4,4,2,0,3,3,3,3,3,3,3,3,3,3,3,3,3,3,3,3,0,0,3,3,3,3,3,3,3,3,3,3,0,3,3,3,3,3,4,4,4,4,3,3,3,3,2,3,2,4,3,3,3,3,3,3,3,0,2,2,2,4,4,4,3,4,
0,3,3,3,3,3,0,0,0,2,3,4,4,4,4,4,4,3,3,3,3,3,4,4,3,3,3,3,4,4,2,4,4,4,3,3,2,3,3,3,3,3,3,3,3,3,3,3,3,2,0,3,4,4,4,4,4,2,2,2,2,3,2,2,3,3,3,3,3,3,3,3,3,2,2,3,4,4,4,3,
0,3,3,3,3,3,2,2,0,2,3,4,4,4,4,4,4,3,3,3,2,2,4,3,3,3,3,4,4,2,4,4,4,4,4,2,2,0,3,3,3,0,2,3,3,3,3,2,2,2,3,2,0,4,4,4,4,0,0,0,3,3,2,0,3,3,3,3,3,3,3,3,3,2,2,3,3,4,4,3,
3,3,3,3,3,3,3,3,2,2,3,3,3,4,4,4,4,3,3,4,2,2,3,3,3,3,4,4,4,3,3,3,3,3,3,3,3,3,4,4,4,2,2,3,3,0,0,0,0,3,0,0,0,4,4,4,4,0,2,2,3,0,0,0,3,3,3,3,3,3,3,2,2,2,2,3,3,4,4,3,
3,3,3,3,4,3,3,3,4,2,3,3,4,4,4,4,4,3,3,2,3,3,3,3,3,3,4,4,3,3,3,3,3,3,4,4,4,4,4,4,4,4,4,3,4,2,2,2,3,2,2,2,2,4,4,4,4,3,2,2,3,2,2,2,3,3,3,3,3,3,3,2,2,2,2,3,3,3,2,3,
3,3,4,2,2,3,3,3,4,2,2,3,3,4,4,4,3,3,3,2,3,3,3,3,3,3,3,3,3,3,3,3,2,2,4,4,4,4,4,4,4,4,4,4,4,4,4,3,0,0,0,0,2,2,4,4,4,3,4,4,4,4,2,2,2,3,3,3,2,2,2,2,2,2,3,3,3,3,3,4,
4,4,4,4,4,3,3,3,4,2,0,2,4,4,4,4,3,3,2,2,3,3,3,3,3,3,4,4,3,3,3,3,3,3,3,4,4,4,4,4,4,4,4,4,4,4,3,3,2,2,2,2,4,3,4,4,4,4,4,2,2,2,2,0,0,0,2,2,2,2,2,3,3,3,3,3,3,3,3,4,
4,4,4,4,4,3,3,3,2,2,0,2,4,4,4,4,4,2,2,4,4,4,4,4,2,4,4,4,4,2,2,4,3,3,3,3,3,3,3,3,3,2,2,2,2,2,2,2,4,4,4,4,4,3,4,4,4,2,2,2,2,2,2,2,2,2,2,2,2,2,4,4,4,4,4,4,4,3,3,3
</data>
 </layer>
 <layer id="1" name="Calque de Tuiles 1" width="80" height="45">
  <data encoding="csv">
0,0,0,0,0,0,0,0,0,0,0,0,0,0,0,0,0,0,0,0,0,0,0,0,0,0,0,0,0,0,0,0,0,0,0,0,0,0,0,0,0,0,0,0,0,0,0,0,0,0,0,0,0,0,0,0,0,0,0,0,0,0,0,0,0,0,0,0,0,0,0,0,0,0,0,0,0,0,0,0,
0,0,0,0,0,0,0,0,0,0,0,0,0,0,0,0,0,0,0,0,0,0,0,0,0,0,0,0,0,0,0,0,0,0,0,0,0,0,0,0,0,0,0,0,0,0,0,0,0,0,0,0,0,0,0,0,0,0,0,0,0,0,0,0,0,0,0,0,0,0,0,0,0,0,0,0,0,0,0,0,
0,0,0,0,0,0,0,0,0,0,0,0,0,0,0,0,0,0,0,0,0,0,0,0,0,0,0,0,0,0,0,0,0,0,0,0,0,0,0,0,0,0,0,0,0,0,0,0,0,0,0,0,0,0,0,0,0,0,0,0,0,0,0,0,0,0,0,0,0,0,0,0,0,0,0,0,0,0,0,0,
0,0,0,0,0,0,0,0,0,0,0,0,0,0,0,0,0,0,0,0,0,0,0,0,0,0,0,0,0,0,0,0,0,0,0,0,0,0,0,0,0,0,0,0,0,0,0,0,0,0,0,0,0,0,0,0,0,0,0,0,0,0,0,0,0,0,0,0,0,0,0,0,0,0,0,0,0,0,0,0,
0,0,0,0,0,0,0,0,0,0,0,0,0,0,0,0,0,0,0,0,0,0,0,0,0,0,0,0,0,0,0,0,0,0,0,0,0,0,0,0,0,0,0,0,0,0,0,0,0,0,0,0,0,0,0,0,0,0,0,0,0,0,0,0,0,0,0,0,0,0,0,0,0,0,0,0,0,0,0,0,
0,0,0,0,0,0,0,0,0,0,0,0,0,0,0,0,0,0,0,0,0,0,0,0,0,0,0,0,0,0,0,0,0,0,0,0,0,0,0,0,0,0,0,0,0,0,0,0,0,0,0,0,0,0,0,0,0,0,0,0,0,0,0,0,0,0,0,0,0,0,0,0,0,0,0,0,0,0,0,0,
0,0,0,0,0,0,0,0,0,0,0,0,0,0,0,0,0,0,0,0,0,0,0,0,0,0,0,0,0,0,0,0,0,0,0,0,0,0,0,0,0,0,0,0,0,0,0,0,0,0,0,0,0,0,0,0,0,0,0,0,0,0,0,0,0,0,0,0,0,0,0,0,0,0,0,0,0,0,0,0,
0,0,0,0,0,0,0,0,0,0,0,0,0,0,0,0,0,0,0,0,0,0,0,0,0,0,0,0,0,0,0,0,0,0,0,0,0,0,0,0,0,0,0,0,0,0,0,0,0,0,0,0,0,0,0,0,0,0,0,0,0,0,0,0,0,0,0,0,0,0,0,0,0,0,0,0,0,0,0,0,
0,0,0,0,0,0,0,0,0,0,0,0,0,0,0,0,0,0,0,0,0,0,0,0,0,0,0,0,0,0,0,0,0,0,0,0,0,0,0,0,0,0,0,0,0,0,0,0,0,0,0,0,0,0,0,0,0,0,0,0,0,0,0,0,0,0,0,0,0,0,0,0,0,0,0,0,0,0,0,0,
0,0,0,0,0,0,0,0,0,0,0,0,0,0,0,0,0,0,0,0,0,0,0,0,0,0,0,0,0,0,0,0,0,0,0,0,0,0,0,0,0,0,0,0,0,0,0,0,0,0,0,0,0,0,0,0,0,0,0,0,0,0,0,0,0,0,0,0,0,0,0,0,0,0,0,0,0,0,0,0,
0,0,0,0,0,0,0,0,0,0,0,0,0,0,0,0,0,0,0,0,0,0,0,0,0,0,0,0,0,0,0,0,0,0,0,0,0,0,0,0,0,0,0,0,0,0,0,0,0,0,0,0,0,0,0,0,0,0,0,0,0,0,0,0,0,0,0,0,0,0,0,0,0,0,0,0,0,0,0,0,
0,0,0,0,0,0,0,0,0,0,0,0,0,0,0,0,0,0,0,0,0,0,0,0,0,0,0,0,0,0,0,0,0,0,0,0,0,0,0,0,0,0,0,0,0,0,0,0,0,0,0,0,0,0,0,0,0,0,0,0,0,0,0,0,0,0,0,0,0,0,0,0,0,0,0,0,0,0,0,0,
0,0,0,0,0,0,0,0,0,0,0,0,0,0,0,0,0,0,0,0,0,0,0,0,0,0,0,0,0,0,0,0,0,0,0,0,0,0,0,0,0,0,0,0,0,0,0,0,0,0,0,0,0,0,0,0,0,0,0,0,0,0,0,0,0,0,0,0,0,0,0,0,0,0,0,0,0,0,0,0,
0,0,0,0,0,0,0,0,0,0,0,0,0,0,0,0,0,0,0,0,0,0,0,0,0,0,0,0,0,0,0,0,0,0,0,0,0,0,0,0,0,0,0,0,0,0,0,0,0,0,0,0,0,0,0,0,0,0,0,0,0,0,0,0,0,0,0,0,0,0,0,0,0,0,0,0,0,0,0,0,
0,0,0,0,0,0,0,0,0,0,0,0,0,0,0,0,0,0,0,0,0,0,0,0,0,0,0,0,0,0,0,0,0,0,0,0,0,0,0,0,0,0,0,0,0,0,0,0,0,0,0,0,0,0,0,0,0,0,0,0,0,0,0,0,0,0,0,0,0,0,0,0,0,0,0,0,0,0,0,0,
0,0,0,0,0,0,0,0,0,0,0,0,0,0,0,0,0,0,0,0,0,0,0,0,0,0,0,0,0,0,0,0,0,0,0,0,0,0,0,0,0,0,0,0,0,0,0,0,0,0,0,0,0,0,0,0,0,0,0,0,0,0,0,0,0,0,0,0,0,0,0,0,0,0,0,0,0,0,0,0,
0,0,0,0,0,0,0,0,0,0,0,0,0,0,0,0,0,0,0,0,0,0,0,0,0,0,0,0,0,0,0,0,0,0,0,0,0,0,0,0,0,0,0,0,0,0,0,0,0,0,0,0,0,0,0,0,0,0,0,0,0,0,0,0,0,0,0,0,0,0,0,0,0,0,0,0,0,0,0,0,
0,0,0,0,0,0,0,0,0,0,0,0,0,0,0,0,0,0,0,0,0,0,0,0,0,0,0,0,0,0,0,0,0,0,0,0,0,0,0,0,0,0,0,0,0,0,0,0,0,0,0,0,0,0,0,0,0,0,0,0,0,0,0,0,0,0,0,0,0,0,0,0,0,0,0,0,0,0,0,0,
0,0,0,0,0,0,0,0,0,0,0,0,0,0,0,0,0,0,0,0,0,0,0,0,0,0,0,0,0,0,0,0,0,0,0,0,0,0,0,0,0,0,0,0,0,0,0,0,0,0,0,0,0,0,0,0,0,0,0,0,0,0,0,0,0,0,0,0,0,0,0,0,0,0,0,0,0,0,0,0,
0,0,0,0,0,0,0,0,0,0,0,0,0,0,0,0,0,0,0,0,0,0,0,0,0,0,0,0,0,0,0,0,0,0,0,0,0,0,0,0,0,0,0,0,0,0,0,0,0,0,0,0,0,0,0,0,0,0,0,0,0,0,0,0,0,0,0,0,0,0,0,0,0,0,0,0,0,0,0,0,
0,0,0,0,0,0,0,0,0,0,0,0,0,0,0,0,0,0,0,0,0,0,0,0,0,0,0,0,0,0,0,0,0,0,0,0,0,0,0,0,0,0,0,0,0,0,0,0,0,0,0,0,0,0,0,0,0,0,0,0,0,0,0,0,0,0,0,0,0,0,0,0,0,0,0,0,0,0,0,0,
0,0,0,0,0,0,0,0,0,0,0,0,0,0,0,0,0,0,0,0,0,0,0,0,0,0,0,0,0,0,0,0,0,0,0,0,0,0,0,0,0,0,0,0,0,0,0,0,0,0,0,0,0,0,0,0,0,0,0,0,0,0,0,0,0,0,0,0,0,0,0,0,0,0,0,0,0,0,0,0,
0,0,0,0,0,0,0,0,0,0,0,0,0,0,0,0,0,0,0,0,0,0,0,0,0,0,0,0,0,0,0,0,0,0,0,0,0,0,0,0,0,0,0,0,0,0,0,0,0,0,0,0,0,0,0,0,0,0,0,0,0,0,0,0,0,0,0,0,0,0,0,0,0,0,0,0,0,0,0,0,
0,0,0,0,0,0,0,0,0,0,0,0,0,0,0,0,0,0,0,0,0,0,0,0,0,0,0,0,0,0,0,0,0,0,0,0,0,0,0,0,0,0,0,0,0,0,0,0,0,0,0,0,0,0,0,0,0,0,0,0,0,0,0,0,0,0,0,0,0,0,0,0,0,0,0,0,0,0,0,0,
0,0,0,0,0,0,0,0,0,0,0,0,0,0,0,0,0,0,0,0,0,0,0,0,0,0,0,0,0,0,0,0,0,0,0,0,0,0,0,1,0,0,0,0,0,0,0,0,0,0,0,0,0,0,0,0,0,0,0,0,0,0,0,0,0,0,0,0,0,0,0,0,0,0,0,0,0,0,0,0,
0,0,0,0,0,0,0,0,0,0,0,0,0,0,0,0,0,0,0,0,0,0,0,0,0,0,0,0,0,0,0,0,0,0,0,0,0,0,0,0,0,0,0,0,0,0,0,0,0,0,0,0,0,0,0,0,0,0,0,0,0,0,0,0,0,0,0,0,0,0,0,0,0,0,0,0,0,0,0,0,
0,0,0,0,0,0,0,0,0,0,0,0,0,0,0,0,0,0,0,0,0,0,0,0,0,0,0,0,0,0,0,0,0,0,0,0,0,0,0,0,0,0,0,0,0,0,0,0,0,0,0,0,0,0,0,0,0,0,0,0,0,0,0,0,0,0,0,0,0,0,0,0,0,0,0,0,0,0,0,0,
0,0,0,0,0,0,0,0,0,0,0,0,0,0,0,0,0,0,0,0,0,0,0,0,0,0,0,0,0,0,0,0,0,0,0,0,0,0,0,0,0,0,0,0,0,0,0,0,0,0,0,0,0,0,0,0,0,0,0,0,0,0,0,0,0,0,0,0,0,0,0,0,0,0,0,0,0,0,0,0,
0,0,0,0,0,0,0,0,0,0,0,0,0,0,0,0,0,0,0,0,0,0,0,0,0,0,0,0,0,0,0,0,0,0,0,0,0,0,0,0,0,0,0,0,0,0,0,0,0,0,0,0,0,0,0,0,0,0,0,0,0,0,0,0,0,0,0,0,0,0,0,0,0,0,0,0,0,0,0,0,
0,0,0,0,0,0,0,0,0,0,0,0,0,0,0,0,0,0,0,0,0,0,0,0,0,0,0,0,0,0,0,0,0,0,0,0,0,0,0,0,0,0,0,0,0,0,0,0,0,0,0,0,0,0,0,0,0,0,0,0,0,0,0,0,0,0,0,0,0,0,0,0,0,0,0,0,0,0,0,0,
0,0,0,0,0,0,0,0,0,0,0,0,0,0,0,0,0,0,0,0,0,0,0,0,0,0,0,0,0,0,0,0,0,0,0,0,0,0,0,0,0,0,0,0,0,0,0,0,0,0,0,0,0,0,0,0,0,0,0,0,0,0,0,0,0,0,0,0,0,0,0,0,0,0,0,0,0,0,0,0,
0,0,0,0,0,0,0,0,0,0,0,0,0,0,0,0,0,0,0,0,0,0,0,0,0,0,0,0,0,0,0,0,0,0,0,0,0,0,0,0,0,0,0,0,0,0,0,0,0,0,0,0,0,0,0,0,0,0,0,0,0,0,0,0,0,0,0,0,0,0,0,0,0,0,0,0,0,0,0,0,
0,0,0,0,0,0,0,0,0,0,0,0,0,0,0,0,0,0,0,0,0,0,0,0,0,0,0,0,0,0,0,0,0,0,0,0,0,0,0,0,0,0,0,0,0,0,0,0,0,0,0,0,0,0,0,0,0,0,0,0,0,0,0,0,0,0,0,0,0,0,0,0,0,0,0,0,0,0,0,0,
0,0,0,0,0,0,0,0,0,0,0,0,0,0,0,0,0,0,0,0,0,0,0,0,0,0,0,0,0,0,0,0,0,0,0,0,0,0,0,0,0,0,0,0,0,0,0,0,0,0,0,0,0,0,0,0,0,0,0,0,0,0,0,0,0,0,0,0,0,0,0,0,0,0,0,0,0,0,0,0,
0,0,0,0,0,0,0,0,0,0,0,0,0,0,0,0,0,0,0,0,0,0,0,0,0,0,0,0,0,0,0,0,0,0,0,0,0,0,0,0,0,0,0,0,0,0,0,0,0,0,0,0,0,0,0,0,0,0,0,0,0,0,0,0,0,0,0,0,0,0,0,0,0,0,0,0,0,0,0,0,
0,0,0,0,0,0,0,0,0,0,0,0,0,0,0,0,0,0,0,0,0,0,0,0,0,0,0,0,0,0,0,0,0,0,0,0,0,0,0,0,0,0,0,0,0,0,0,0,0,0,0,0,0,0,0,0,0,0,0,0,0,0,0,0,0,0,0,0,0,0,0,0,0,0,0,0,0,0,0,0,
0,0,0,0,0,0,0,0,0,0,0,0,0,0,0,0,0,0,0,0,0,0,0,0,0,0,0,0,0,0,0,0,0,0,0,0,0,0,0,0,0,0,0,0,0,0,0,0,0,0,0,0,0,0,0,0,0,0,0,0,0,0,0,0,0,0,0,0,0,0,0,0,0,0,0,0,0,0,0,0,
0,0,0,0,0,0,0,0,0,0,0,0,0,0,0,0,0,0,0,0,0,0,0,0,0,0,0,0,0,0,0,0,0,0,0,0,0,0,0,0,0,0,0,0,0,0,0,0,0,0,0,0,0,0,0,0,0,0,0,0,0,0,0,0,0,0,0,0,0,0,0,0,0,0,0,0,0,0,0,0,
0,0,0,0,0,0,0,0,0,0,0,0,0,0,0,0,0,0,0,0,0,0,0,0,0,0,0,0,0,0,0,0,0,0,0,0,0,0,0,0,0,0,0,0,0,0,0,0,0,0,0,0,0,0,0,0,0,0,0,0,0,0,0,0,0,0,0,0,0,0,0,0,0,0,0,0,0,0,0,0,
0,0,0,0,0,0,0,0,0,0,0,0,0,0,0,0,0,0,0,0,0,0,0,0,0,0,0,0,0,0,0,0,0,0,0,0,0,0,0,0,0,0,0,0,0,0,0,0,0,0,0,0,0,0,0,0,0,0,0,0,0,0,0,0,0,0,0,0,0,0,0,0,0,0,0,0,0,0,0,0,
0,0,0,0,0,0,0,0,0,0,0,0,0,0,0,0,0,0,0,0,0,0,0,0,0,0,0,0,0,0,0,0,0,0,0,0,0,0,0,0,0,0,0,0,0,0,0,0,0,0,0,0,0,0,0,0,0,0,0,0,0,0,0,0,0,0,0,0,0,0,0,0,0,0,0,0,0,0,0,0,
0,0,0,0,0,0,0,0,0,0,0,0,0,0,0,0,0,0,0,0,0,0,0,0,0,0,0,0,0,0,0,0,0,0,0,0,0,0,0,0,0,0,0,0,0,0,0,0,0,0,0,0,0,0,0,0,0,0,0,0,0,0,0,0,0,0,0,0,0,0,0,0,0,0,0,0,0,0,0,0,
0,0,0,0,0,0,0,0,0,0,0,0,0,0,0,0,0,0,0,0,0,0,0,0,0,0,0,0,0,0,0,0,0,0,0,0,0,0,0,0,0,0,0,0,0,0,0,0,0,0,0,0,0,0,0,0,0,0,0,0,0,0,0,0,0,0,0,0,0,0,0,0,0,0,0,0,0,0,0,0,
0,0,0,0,0,0,0,0,0,0,0,0,0,0,0,0,0,0,0,0,0,0,0,0,0,0,0,0,0,0,0,0,0,0,0,0,0,0,0,0,0,0,0,0,0,0,0,0,0,0,0,0,0,0,0,0,0,0,0,0,0,0,0,0,0,0,0,0,0,0,0,0,0,0,0,0,0,0,0,0,
0,0,0,0,0,0,0,0,0,0,0,0,0,0,0,0,0,0,0,0,0,0,0,0,0,0,0,0,0,0,0,0,0,0,0,0,0,0,0,0,0,0,0,0,0,0,0,0,0,0,0,0,0,0,0,0,0,0,0,0,0,0,0,0,0,0,0,0,0,0,0,0,0,0,0,0,0,0,0,0
</data>
 </layer>
</map>
